X: 1
T: Off to California
C: trad.
R: hornpipe, reel
N: "ITM Hornpipe in G" at right above 1st staff.
Q: 1/4=100
Z: 2020 John Chambers <jc:trillian.mit.edu>
S: https://www.facebook.com/groups/Fiddletuneoftheday/ 2020-08-28
S: https://www.facebook.com/groups/Fiddletuneoftheday/photos/
M: 4/4
L: 1/8
K: G
(3(DEF) |\
"G"GFGB "D"AGED | "G"GBdg "C"e2 (3(def) | "G"gfgd "Em"edBG | "Am"ABAG E2 (3(DEF) |\
"G"GFGB "D"AGED | "G"GBdg "C"e2 (3(def) | "G"gfgd "C"edBG | "Am"A2"D"G2 "G"G2 :|
|: ef |\
"Em"gfeg "D"f2ed | "C"edef "Em"edB2 | "G"gfgd "Em"edBG | "Am"ABAG "G"E2"D"(3(DEF) |\
"G"GFGB "D"AGED | "G"GBdg "C"e2(3(def) | "G"gfgd "C"edBG | "Am"A2"D"G2 "G"G2 :|
